source/symbols/tools/space-tool.svg

<?xml version="1.0" encoding="UTF-8" standalone="no"?>
<svg
   xmlns:dc="http://purl.org/dc/elements/1.1/"
   xmlns:cc="http://creativecommons.org/ns#"
   xmlns:rdf="http://www.w3.org/1999/02/22-rdf-syntax-ns#"
   xmlns:svg="http://www.w3.org/2000/svg"
   xmlns="http://www.w3.org/2000/svg"
   version="1.1"
   id="svg4749"
   viewBox="0 0 2000 2000"
   height="2000"
   width="2000">
  <defs
     id="defs4751" />
  <metadata
     id="metadata4754">
    <rdf:RDF>
      <cc:Work
         rdf:about="">
        <dc:format>image/svg+xml</dc:format>
        <dc:type
           rdf:resource="http://purl.org/dc/dcmitype/StillImage" />
        <dc:title></dc:title>
      </cc:Work>
    </rdf:RDF>
  </metadata>
  <g
     transform="translate(0,947.63784)"
     id="layer1">
    <path
       id="path4759"
       transform="translate(0,-947.63784)"
       d="M 731.39062 100 L 731.39062 1900 L 807.39062 1900 L 807.39062 100 L 731.39062 100 z M 1198.2148 100 L 1198.2148 1900 L 1274.2148 1900 L 1274.2148 100 L 1198.2148 100 z M 409.31836 674 L 81.289062 1000 L 409.31836 1326 L 409.31836 1104.0488 L 596.28906 1104.0488 L 596.28906 895.00781 L 409.31836 895.00781 L 409.31836 674 z M 1600.1523 674 L 1600.1523 890.91016 L 1411.0684 892.85352 L 1411.0684 1104.5195 L 1600.1523 1104.5195 L 1600.1523 1326 L 1926.0684 1000 L 1600.1523 674 z "
       style="color:#000000;font-style:normal;font-variant:normal;font-weight:normal;font-stretch:normal;font-size:medium;line-height:normal;font-family:sans-serif;text-indent:0;text-align:start;text-decoration:none;text-decoration-line:none;text-decoration-style:solid;text-decoration-color:#000000;letter-spacing:normal;word-spacing:normal;text-transform:none;direction:ltr;block-progression:tb;writing-mode:lr-tb;baseline-shift:baseline;text-anchor:start;white-space:normal;clip-rule:nonzero;display:inline;overflow:visible;visibility:visible;opacity:1;isolation:auto;mix-blend-mode:normal;color-interpolation:sRGB;color-interpolation-filters:linearRGB;solid-color:#000000;solid-opacity:1;fill:#000000;fill-opacity:1;fill-rule:evenodd;stroke:none;stroke-width:153.44264221;stroke-linecap:butt;stroke-linejoin:miter;stroke-miterlimit:4;stroke-dasharray:none;stroke-dashoffset:0;stroke-opacity:1;color-rendering:auto;image-rendering:auto;shape-rendering:auto;text-rendering:auto;enable-background:accumulate" />
  </g>
</svg>

<svg xmlns="http://www.w3.org/2000/svg" height="2000" width="2000"><g color="#000" font-weight="400" font-family="sans-serif" fill-rule="evenodd"><path d="M731.39 100v1800h76V100zM1198.214 100v1800h76V100zM1600.152 674v216.91l-189.083 1.943V1104.52h189.084V1326l325.916-326-325.916-326zM409.318 674L81.29 1000l328.03 326v-221.951h186.97V895.008H409.318V674z" style="line-height:normal;text-indent:0;text-align:start;text-decoration-line:none;text-decoration-style:solid;text-decoration-color:#000;text-transform:none;block-progression:tb;white-space:normal;isolation:auto;mix-blend-mode:normal;solid-color:#000;solid-opacity:1" overflow="visible"/></g></svg>
